app/dist/common/images/winchester-energy-ltd.svg

<svg height="18" viewBox="0 0 18 18" width="18" xmlns="http://www.w3.org/2000/svg" xmlns:xlink="http://www.w3.org/1999/xlink"><linearGradient id="a" gradientUnits="userSpaceOnUse" x1="3.35" x2="21.9" y1="3.12" y2="24.43"><stop offset="0" stop-color="#1a1e21"/><stop offset="1" stop-color="#06060a"/></linearGradient><linearGradient id="b" gradientUnits="userSpaceOnUse" x1="6.75" x2="12.91" y1="6" y2="12.23"><stop offset="0" stop-color="#f5881e"/><stop offset="1" stop-color="#f9a21a"/></linearGradient><path d="m0 0h18v18h-18z" fill="url(#a)"/><g fill="url(#b)"><path d="m6.75 10.36-.15.37-1.8-3.73h.75l3.45 7 1.05-2.26-.75-1.22-.3.57-2.7-5.09h-3.3l3.6 7.64.9-1.82z"/><path d="m7.8 8.18.75 1.46.45-.74 2.4 4.74 3.6-7.64h-3.6l-.9 2.18.75 1.27 1.2-2.45h.75l-1.8 3.73-2.4-4.73z"/></g></svg>

<!-- by TradingView --><svg width="18" height="18" viewBox="0 0 18 18" xmlns="http://www.w3.org/2000/svg"><path fill="url(#az20ovghy)" d="M0 0h18v18H0z"/><path d="m6.75 10.36-.15.37L4.8 7h.75L9 14l1.05-2.26-.75-1.22-.3.57L6.3 6H3l3.6 7.64.9-1.82-.75-1.46Z" fill="url(#bz20ovghy)"/><path d="m7.8 8.18.75 1.46L9 8.9l2.4 4.74L15 6h-3.6l-.9 2.18.75 1.27L12.45 7h.75l-1.8 3.73L9 6 7.8 8.18Z" fill="url(#cz20ovghy)"/><defs><linearGradient id="az20ovghy" x1="3.35" y1="3.12" x2="21.9" y2="24.43" gradientUnits="userSpaceOnUse"><stop stop-color="#1A1E21"/><stop offset="1" stop-color="#06060A"/></linearGradient><linearGradient id="bz20ovghy" x1="6.75" y1="6" x2="12.91" y2="12.23" gradientUnits="userSpaceOnUse"><stop stop-color="#F5881E"/><stop offset="1" stop-color="#F9A21A"/></linearGradient><linearGradient id="cz20ovghy" x1="6.75" y1="6" x2="12.91" y2="12.23" gradientUnits="userSpaceOnUse"><stop stop-color="#F5881E"/><stop offset="1" stop-color="#F9A21A"/></linearGradient></defs></svg>
